X: 103
T: Yorktown
P: piffero primo a0541
O: Bill Krug
%R: march
F: http://ancients.sudburymuster.org/mus/sng/pdf/yorktownC0.pdf
Z: 2020 John Chambers <jc:trillian.mit.edu>
M: 2/4
L: 1/16
K: D
de |\
f2f2 gfed | B2c2 d2df | a3b  a2f2 | f2e2 e2de |\
f2f2 gfed | B2c2 d2df | afdf eABc | d4- d2 :|
|: A2 |\
dcdf a2gf | e2A2 A2A2 | cBcd egfe | f2d2 d2A2 |\
dcdf a2gf | e2b2 b2df | afdf eABc | d4- d2 :|
|: A2 |\
A3B  A2F2 | A6 d2 | d3e d2B2 | d6 ef |\
g2f2 e2d2 | B2d2 A2d2 | cdef g2c2 | d4 - d2 :|

% %sep 1 1 200
% %center - - - - - - - - - -
% Whatever we want at the bottom of each set belongs here.
